!!!OTL: Auf ewig getreu (123), S. 282
!!!id: T0288
**kern
*clefG2
*k[]
*G:
{4g
=1
4g
4g
4g
4g
=2
4g
4b
4b}
=3
{8a
8g
=4
4d
4b
4b
4b
=5
4b
4ee
4dd}
=6
{4g
=7
4g
4ee
4ee
8ee
8ee
=8
4ee
8dd
8cc
4b}
=9
{8dd
8ee
=10
4.dd
8cc
4cc
8dd
8cc
=11
4b}
2r
=12
{4g
=13
4g
4ee
4ee
8ee
8ee
=14
4ee
8dd
8cc
4b}
=15
{8dd
8ee
=16
4.dd
8cc
4cc
8dd
8cc
=17
4b}
2r
==
*-
!!!minrhy: 8
!!!meters: 4/4 ]  ZZ[6
!!!cut: Auf ewig getreu (123), S. 282
!!!reg: Luxemburg
!!!trd: Singendes Volk, Esch-Alzette 1937 posth.
!!!rhy1: X_  X_X_X_X_  X_X_X_
!!!rhy2: XX  X_X_X_X_  X_X_X_
!!!key: T0288  08  G 4/4 ]  ZZ[6
!!!mod: SECHSTONSKALA DUR ?]  AMBITUS[9
!!!kad: 353333
!!!akz: 1113_-5335_1663_543_1663_543_
!!!fot: 'a__as"as"b__as"b__
!!!for: 'a__av_b__c__b__c__
!!!fok: '/__Va_^a_\__^a_\__
!! PHRAS[AUFTAKTIG]
!!!fkt: Liebeslieder
!!!bem: StraPen, fff Witry, 6.12.1932
!! THILL, Mathias:
!! PR[21] 2K[10] 2G[17] 3K[0] 3G[0] 4A[10] 4Ü[0] 5A[0] 6K[0] 6G[0]
!! 7K[0] 7G[0] 8A[0] MEHR[0] SI[38] ABS[29] SR[28] SP[10]
!! ST[8] 2k[7] 2g[21] 3k[10] 3g[0] 4d[3] 4ü[0] 5d[0] 6k[0] 6g[0]
!! 7k[0] 7g[0] 8d[0] mehr[0] si[41] dm[-3] sr[28] sp[14]
!! 1F[50] 2F[50] 3F[0] 4F[0] LF[0] 2P[0] 3P[0] 4P[0] TRI[0] DF[2] AB[32]
!! TF[0] U3K[0] U3[0] U4[0] U4Ü[0] U5[0] U6K[0] U6[0] U7K[0] U7[0]
!! N1[0] N2K[0] N2[13] N3K[0] N3[30] N4[13] N4Ü[0] N5[27] N6K[0] N6[10]
!!!n7k: 0] N7[3] O1[3] O2K[0] O2[0] O3K[0] O3[0] HÖ[0
